!!!OTL: Zriny's Tod. (♱ 7. Sept. 1566.) / (Von dem Grafen und Ritter Nicolaus Serin.)
!!!ARE: Europa, Mitteleuropa, Deutschland
!!!SCT: A0408
!!!TXL: @@DE
!!!YEM: Copyright 1995, estate of Helmut Schaffrath.
**kern	**text
*M4/4	*
*met(c)	*
*clefC1	*
*k[]	*
*D:	*
2ryy	.
4ryy	.
{4dd	Wie
=1	=1
4dd	ge-
4cc	-ren
4b	wolt
4a	ich
=2	=2
2g	ſin-
4g}	-gen,
{4a	So
=3	=3
4b	ſicht
4cc	mich
4dd	trawren
4b	.
=4	=4
2a	an,}
4r}	.
{4dd	Ich
=5	=5
4dd	weiß
4cc	nit
4b	ʒu
4a	ver-
=6	=6
2g	-brin-
4g}	-gen,
{4a	Je-
=7	=7
4b	-doch
4cc	kan
4dd	ichs
4b	nit
=8	=8
2a	lan,}
4r}	.
{4a	Herr
=9	=9
4a	Gott,
4g	ich
4a	thue
4b	dirs
=10	=10
2cc	kla-
4a}	-gen,
{4a	Den
=11	=11
4a	Ja-
4a	-mer
4g	vnd
4g	die
=12	=12
2f	Noth,
4r}	.
{4cc	So
=13	=13
4cc	ſich
4cc	vor
4cc	we-
4dd	-nig
=14	=14
2cc	Ta-
4a}	-gen
{4a	Neulich
=15	=15
4cc	.
4cc	hat
4dd	ʒu-
4b-i	-ge-
=16	=16
2a	-tra-
4cc	-gen,
4a	Laß
=17	=17
4a	dichs
4f	er-
4g/	-bar-
4e	-men
=18	=18
1d;}	Gott.
==	==
!!!GTL: Einige historisch-politische Lieder
!!!AGN: Romanze, Ballade, Lied, Kriegslied
!! Dollerweise (A0374), volksthueml. hier nach Werlin, 1646, S.2946
!!!ONB: ESAC (Essen Associative Code) Database: ALTDEU
!!!AMT: simple quadruple
!!!AIN: vox
!!!EED: Helmut Schaffrath
!!!EEV: 1.0
!!!RDF**kern: i = editorial accidental
!!!URL-scan: https://rosdok.uni-rostock.de/mcrviewer/recordIdentifier/rosdok_ppn738218359/iview2/phys_0580.iview2?x=211.1906371744103&y=1733.5002414509654&scale=0.7083010262257697&rotation=0&layout=singlePageLayout
!!!ENC: Anna Maria Matuszewska
!!!EEV: 2024/15/03
*-	*-
